assets/bold/lock-laminated-open-bold.svg

<svg id="Flat" xmlns="http://www.w3.org/2000/svg" viewBox="0 0 256 256">
  <path d="M208.0127,76h-104V52a24.00149,24.00149,0,0,1,47.85253-2.68164,12.00037,12.00037,0,0,0,23.85547-2.63672A48.00187,48.00187,0,0,0,80.0127,52V76h-32a20.02228,20.02228,0,0,0-20,20V208a20.02228,20.02228,0,0,0,20,20h160a20.02229,20.02229,0,0,0,20-20V96A20.02229,20.02229,0,0,0,208.0127,76Zm-156,68h152v16h-152Zm152-44v20h-152V100Zm-152,104V184h152v20Z"/>
</svg>

<svg xmlns="http://www.w3.org/2000/svg" viewBox="0 0 256 256"><path d="M208,76H104V52a24,24,0,0,1,47.9-2.7,12,12,0,0,0,23.8-2.6A48,48,0,0,0,80,52V76H48A20.1,20.1,0,0,0,28,96V208a20.1,20.1,0,0,0,20,20H208a20.1,20.1,0,0,0,20-20V96A20.1,20.1,0,0,0,208,76ZM52,144H204v16H52Zm152-44v20H52V100ZM52,204V184H204v20Z"/></svg>
